X:38
T:Maddox's Delight. JJo8.038
B:J.Johnson Choice Collection Vol 8 1758
Z:vmp.Simon Wilson 2013 www.village-music-project.org.uk
M:6/8
L:1/8
Q:3/8=120
K:D
A|dfa gec|dAG FED|CDE FGA|Bcd
AFD|EF^G ABc|def e^ga|fdB {cd}e3|dB^GB2:|
|:A|AB=c BGG,|B^cdc2A|Bcd efg|agf{f}e2a|
bgdG2{ga}b|afdF2d|Bgf edc|dAFD2:|

